res/Buttons/Stop_Off.svg

<?xml version="1.0" encoding="UTF-8" standalone="no"?>
<svg
   xmlns:dc="http://purl.org/dc/elements/1.1/"
   xmlns:cc="http://creativecommons.org/ns#"
   xmlns:rdf="http://www.w3.org/1999/02/22-rdf-syntax-ns#"
   xmlns:svg="http://www.w3.org/2000/svg"
   xmlns="http://www.w3.org/2000/svg"
   xmlns:sodipodi="http://sodipodi.sourceforge.net/DTD/sodipodi-0.dtd"
   xmlns:inkscape="http://www.inkscape.org/namespaces/inkscape"
   width="10mm"
   height="10mm"
   viewBox="0 0 10 10"
   version="1.1"
   id="svg1524"
   inkscape:version="1.0.2-2 (e86c870879, 2021-01-15)"
   sodipodi:docname="Stop_Off.svg">
  <defs
     id="defs1518" />
  <sodipodi:namedview
     id="base"
     pagecolor="#ffffff"
     bordercolor="#666666"
     borderopacity="1.0"
     inkscape:pageopacity="0.0"
     inkscape:pageshadow="2"
     inkscape:zoom="2.02"
     inkscape:cx="240.67007"
     inkscape:cy="126.472"
     inkscape:document-units="mm"
     inkscape:current-layer="layer1"
     inkscape:document-rotation="0"
     showgrid="false"
     inkscape:window-width="1920"
     inkscape:window-height="1001"
     inkscape:window-x="-9"
     inkscape:window-y="-9"
     inkscape:window-maximized="1"
     inkscape:showpageshadow="false" />
  <metadata
     id="metadata1521">
    <rdf:RDF>
      <cc:Work
         rdf:about="">
        <dc:format>image/svg+xml</dc:format>
        <dc:type
           rdf:resource="http://purl.org/dc/dcmitype/StillImage" />
        <dc:title></dc:title>
      </cc:Work>
    </rdf:RDF>
  </metadata>
  <g
     inkscape:label="Layer 1"
     inkscape:groupmode="layer"
     id="layer1">
    <circle
       style="display:inline;fill:#4d4d4d;fill-opacity:1;stroke:#000000;stroke-width:0.0597166;stroke-miterlimit:4;stroke-dasharray:none;stroke-opacity:1"
       id="path911-2-4"
       cx="5"
       cy="5"
       r="4.9701419" />
    <path
       style="display:inline;fill:#000000;fill-opacity:1;stroke:#000000;stroke-width:0.0103874;stroke-miterlimit:4;stroke-dasharray:none;stroke-opacity:1"
       d="m 0.19691978,4.6504153 c 0.06632,-1.471973 0.87292602,-2.855727 2.15008002,-3.68849901 1.620757,-1.056812 3.668751,-1.055868 5.306796,0.0024 1.045955,0.67577201 1.803616,1.77738801 2.055142,2.98812001 0.05816,0.280118 0.130619,0.976749 0.104218,1.002475 -0.0079,0.0077 -0.118843,-0.03081 -0.246516,-0.08561 -2.175758,-0.933724 -4.816625,-1.079241 -7.595461,-0.418542 -0.459365,0.109215 -1.48020802,0.419324 -1.73714502,0.527698 -0.05088,0.02144 -0.05231,0.0088 -0.03715,-0.328101 z"
       id="path1176-1-4" />
    <rect
       style="display:inline;opacity:0.779412;fill:#ffffff;fill-opacity:1;stroke:#000023;stroke-width:0.0480529;stroke-miterlimit:4;stroke-dasharray:none;stroke-opacity:1"
       id="rect3351-1"
       width="5.6142931"
       height="5.5590944"
       x="2.2342532"
       y="2.2618525" />
  </g>
</svg>

<?xml version="1.0" encoding="UTF-8" standalone="no"?>
<svg
   xmlns:dc="http://purl.org/dc/elements/1.1/"
   xmlns:cc="http://creativecommons.org/ns#"
   xmlns:rdf="http://www.w3.org/1999/02/22-rdf-syntax-ns#"
   xmlns:svg="http://www.w3.org/2000/svg"
   xmlns="http://www.w3.org/2000/svg"
   xmlns:sodipodi="http://sodipodi.sourceforge.net/DTD/sodipodi-0.dtd"
   xmlns:inkscape="http://www.inkscape.org/namespaces/inkscape"
   width="10mm"
   height="10mm"
   viewBox="0 0 10 10"
   version="1.1"
   id="svg1524"
   inkscape:version="1.0.2-2 (e86c870879, 2021-01-15)"
   sodipodi:docname="Stop_Off.svg">
  <defs
     id="defs1518" />
  <sodipodi:namedview
     id="base"
     pagecolor="#ffffff"
     bordercolor="#666666"
     borderopacity="1.0"
     inkscape:pageopacity="0.0"
     inkscape:pageshadow="2"
     inkscape:zoom="2.02"
     inkscape:cx="240.67007"
     inkscape:cy="126.472"
     inkscape:document-units="mm"
     inkscape:current-layer="layer1"
     inkscape:document-rotation="0"
     showgrid="false"
     inkscape:window-width="1920"
     inkscape:window-height="1001"
     inkscape:window-x="-9"
     inkscape:window-y="-9"
     inkscape:window-maximized="1"
     inkscape:showpageshadow="false" />
  <metadata
     id="metadata1521">
    <rdf:RDF>
      <cc:Work
         rdf:about="">
        <dc:format>image/svg+xml</dc:format>
        <dc:type
           rdf:resource="http://purl.org/dc/dcmitype/StillImage" />
        <dc:title />
      </cc:Work>
    </rdf:RDF>
  </metadata>
  <g
     inkscape:label="Layer 1"
     inkscape:groupmode="layer"
     id="layer1">
    <circle
       style="display:inline;fill:#4d4d4d;fill-opacity:1;stroke:#000000;stroke-width:0.0597166;stroke-miterlimit:4;stroke-dasharray:none;stroke-opacity:1"
       id="path911-2-4"
       cx="5"
       cy="5"
       r="4.9701419" />
    <path
       style="display:inline;fill:#000000;fill-opacity:1;stroke:#000000;stroke-width:0.0103874;stroke-miterlimit:4;stroke-dasharray:none;stroke-opacity:1"
       d="M 0.19691844,4.6504161 C 0.26323377,3.1784429 1.0698443,1.794689 2.346998,0.96191661 3.9677554,-0.09489469 6.0157497,-0.09395117 7.6537949,0.96430524 8.6997498,1.6400766 9.4574105,2.7416933 9.7089371,3.9524242 9.767101,4.232543 9.8395552,4.9291734 9.8131545,4.9548993 9.8052719,4.9626028 9.6943125,4.9240855 9.5666382,4.8692895 7.3908805,3.9355662 4.7500135,3.7900487 1.9711774,4.4507476 1.5118131,4.5599633 0.49096914,4.8700718 0.23403233,4.9784456 0.18315373,4.9998838 0.1817206,4.9872835 0.19688857,4.6503444 Z"
       id="path1176-1-4" />
    <rect
       style="display:inline;opacity:0.779412;fill:#ffffff;fill-opacity:1;stroke:#000023;stroke-width:0.0322268;stroke-miterlimit:4;stroke-dasharray:none;stroke-opacity:1"
       id="rect3351-4"
       width="3.6525769"
       height="3.8432055"
       x="3.2288985"
       y="2.8584621" />
  </g>
</svg>
